v/0.4.11/design-resources/icons/wf_doctype-icons/file-save.svg

<?xml version="1.0" encoding="utf-8"?>
<!-- Generated by IcoMoon.io -->
<!DOCTYPE svg PUBLIC "-//W3C//DTD SVG 1.1//EN" "http://www.w3.org/Graphics/SVG/1.1/DTD/svg11.dtd">
<svg version="1.1" xmlns="http://www.w3.org/2000/svg" xmlns:xlink="http://www.w3.org/1999/xlink" width="512" height="512" viewBox="0 0 512 512">
<g>
</g>
	<path d="M416 32h-384v448h448v-383.984c0-35.36-28.656-64.016-64-64.016zM320 64v64h-128v-64h128zM128 448v-192h256v192h-256zM448 448h-32v-224h-320v224h-32v-384h96v96h192v-96h64c17.642 0 32 14.359 32 32.016v351.984z" fill="#595959" />
</svg>

<svg xmlns="http://www.w3.org/2000/svg" width="512" height="512" viewBox="0 0 512 512"><path stroke="#449FDB" d="M0 0"/><path d="M416 32H32v448h448V96.016C480 60.656 451.344 32 416 32zm-96 32v64H192V64h128zM128 448V256h256v192H128zm320 0h-32V224H96v224H64V64h96v96h192V64h64c17.642 0 32 14.36 32 32.016V448z" fill="#595959"/></svg>
